assets/images/follow.svg

<?xml version="1.0" encoding="UTF-8"?>
<svg width="152px" height="144px" viewBox="0 0 152 144" version="1.1" xmlns="http://www.w3.org/2000/svg" xmlns:xlink="http://www.w3.org/1999/xlink">
    <!-- Generator: Sketch 52.6 (67491) - http://www.bohemiancoding.com/sketch -->
    <title>follow</title>
    <desc>Created with Sketch.</desc>
    <g id="Page-1" stroke="none" stroke-width="1" fill="none" fill-rule="evenodd">
        <g id="Pixel-2" transform="translate(-224.000000, -3892.000000)">
            <g id="follow" transform="translate(224.000000, 3892.000000)">
                <rect id="Rectangle-Copy-8" fill="#252525" x="0" y="0" width="152" height="144"></rect>
                <path d="M90.5,78 C85.8098889,78 82,81.8061111 82,86.5 C82,91.1938889 85.8098889,95 90.5,95 C95.1901111,95 99,91.1938889 99,86.5 C99,81.8061111 95.1901111,78 90.5,78 Z M95,87 L91,87 L91,91 L89,91 L89,87 L85,87 L85,85 L89,85 L89,81 L91,81 L91,85 L95,85 L95,87 Z M81.0346151,95 L53.0094584,95 L53,92.6214167 C53,87.7914167 53.3764432,85.0026667 59.0117414,83.684 C65.3772258,82.19475 71.66326,80.86075 68.6403642,75.2161667 C59.6870691,58.4855833 66.0866038,49 75.7000932,49 C88.4707874,49 89.8990016,63.5570833 82.5857882,75.2180833 C80.1417448,79.1108333 77.5917677,82.1755833 77.5917677,86.375 C77.5917677,89.7234167 78.9083731,92.7594167 81.0346151,95 Z" fill="#FFFFFF" fill-rule="nonzero"></path>
            </g>
        </g>
    </g>
</svg>

<svg xmlns="http://www.w3.org/2000/svg" width="152" height="144"><title>follow</title><desc>Created with Sketch.</desc><g fill="none"><g><g><path fill="#252525" d="M0 0h152v144H0z"/><path fill="#fff" fill-rule="nonzero" d="M90.5 78c-4.7 0-8.5 3.8-8.5 8.5s3.8 8.5 8.5 8.5 8.5-3.8 8.5-8.5-3.8-8.5-8.5-8.5zm4.5 9h-4v4h-2v-4h-4v-2h4v-4h2v4h4v2zm-13.97 8H53v-2.38c0-4.83.38-7.62 6-8.94 6.38-1.5 12.66-2.82 9.64-8.46C59.7 58.5 66.1 49 75.7 49c12.77 0 14.2 14.56 6.9 26.22-2.46 3.9-5 6.96-5 11.16 0 3.34 1.3 6.38 3.43 8.62z"/></g></g></g></svg>
